icon/fa/ranking-star.svg

<svg xmlns="http://www.w3.org/2000/svg" viewBox="0 0 640 512"><!--! Font Awesome Free 6.1.2 by @fontawesome - https://fontawesome.com License - https://fontawesome.com/license/free (Icons: CC BY 4.0, Fonts: SIL OFL 1.1, Code: MIT License) Copyright 2022 Fonticons, Inc.--><path d="M406.1 61.65c9.3 1.44 13.3 12.94 6.5 19.76l-38 36.69 9 52c.5 9.4-8.3 16.6-16.9 12.3l-46.5-24.5-46.9 24.8c-8.6 4.3-18.3-2.9-16.9-12.2l9-52.1-38-36.99c-6.8-6.82-2.8-18.32 6.5-19.76l52.3-7.54 23.6-47.778c4.3-8.621 16.5-8.262 20.4 0l23.6 47.778 52.3 7.54zM384 256c17.7 0 32 14.3 32 32v192c0 17.7-14.3 32-32 32H256c-17.7 0-32-14.3-32-32V288c0-17.7 14.3-32 32-32h128zm-224 64c17.7 0 32 14.3 32 32v128c0 17.7-14.3 32-32 32H32c-17.67 0-32-14.3-32-32V352c0-17.7 14.33-32 32-32h128zm288 96c0-17.7 14.3-32 32-32h128c17.7 0 32 14.3 32 32v64c0 17.7-14.3 32-32 32H480c-17.7 0-32-14.3-32-32v-64z"/></svg>

<svg xmlns="http://www.w3.org/2000/svg" viewBox="0 0 640 512" height="1em" width="1em">
<!--! Font Awesome Free 6.1.2 by @fontawesome - https://fontawesome.com License - https://fontawesome.com/license/free (Icons: CC BY 4.0, Fonts: SIL OFL 1.1, Code: MIT License) Copyright 2022 Fonticons, Inc.-->
  <path d="M406.1 61.65C415.4 63.09 419.4 74.59 412.6 81.41L374.6 118.1L383.6 170.1C384.1 179.5 375.3 186.7 366.7 182.4L320.2 157.9L273.3 182.7C264.7 187 255 179.8 256.4 170.5L265.4 118.4L227.4 81.41C220.6 74.59 224.6 63.09 233.9 61.65L286.2 54.11L309.8 6.332C314.1-2.289 326.3-1.93 330.2 6.332L353.8 54.11L406.1 61.65zM384 256C401.7 256 416 270.3 416 288V480C416 497.7 401.7 512 384 512H256C238.3 512 224 497.7 224 480V288C224 270.3 238.3 256 256 256H384zM160 320C177.7 320 192 334.3 192 352V480C192 497.7 177.7 512 160 512H32C14.33 512 0 497.7 0 480V352C0 334.3 14.33 320 32 320H160zM448 416C448 398.3 462.3 384 480 384H608C625.7 384 640 398.3 640 416V480C640 497.7 625.7 512 608 512H480C462.3 512 448 497.7 448 480V416z"/>
</svg>
